X:0
T:Martyrs
G:psalm tune
M:2/2
L:1/2
Q:1/2=80
K:DDor
D|FD|AF|ED|A||A|cA|Bd|A2-|A||
A|cG|AF|ED|A||c|BG|BA|D2-|D|]

The transposed versions of it are:

